svgs/bima_plus.svg

<svg width="192" height="192" viewBox="0 0 192 192" fill="none" xmlns="http://www.w3.org/2000/svg"><path d="m58 26 38 4 38-4 10 59.5 24.639 10.665c1.992.862 1.376 3.835-.795 3.835H24.156c-2.171 0-2.787-2.973-.795-3.835L48 85.5 58 26Z" stroke="#000" stroke-width="12" stroke-linecap="round" stroke-linejoin="round"/><path d="M46.158 120c2.037 25.744 23.574 46 49.842 46 26.268 0 47.805-20.256 49.842-46" stroke="#000" stroke-width="12" stroke-linecap="round"/><path d="M96 146c11.046 0 20-8.954 20-20H76c0 11.046 8.954 20 20 20Z" stroke="#000" stroke-width="12" stroke-linejoin="round"/></svg>

<?xml version="1.0" encoding="UTF-8" standalone="no"?><svg xmlns:android="http://schemas.android.com/apk/res/android" height="192" width="192" xmlns="http://www.w3.org/2000/svg">
  <path d="M58,26L96,30L134,26L144,85.5L168.639,96.165C170.631,97.027 170.015,100 167.844,100H96H24.156C21.985,100 21.369,97.027 23.361,96.165L48,85.5L58,26Z" fill="#000000" fill-opacity="0.0" stroke="#000000" stroke-linecap="round" stroke-linejoin="round" stroke-width="12"/>
  <path d="M46.158,120C48.195,145.744 69.732,166 96,166C122.268,166 143.805,145.744 145.842,120" fill="#000000" fill-opacity="0.0" stroke="#000000" stroke-linecap="round" stroke-width="12"/>
  <path d="M96,146C107.046,146 116,137.046 116,126H76C76,137.046 84.954,146 96,146Z" fill="#000000" fill-opacity="0.0" stroke="#000000" stroke-linejoin="round" stroke-width="12"/>
</svg>
